X:1
T:This I dig of you
M:4/4
L:1/4
C:Hank Mobley
Q:1/4=240
S:Hank Mobley - "Workout"
K:Bb
%%text (medium/up)
%%vskip 20
P:A
"Bbmaj7"D2- D>F | "Cm7"E2-E>G | "Dm7"F2-F>A | "Ebmaj7"G2-GE/G/ |
"Dm7"F2-FD/F/ | "Cm7"E2-EC/E/ | "Bb6"D2-D>B, | "Bb7"_A,z zB, ||
P:B
"Ebmaj7"G4 | "Em7b5"A>G "A7"z/A/ z/G/ | "Dm7"F2-F/D/F/G/ | "Gm7"z4 |
"Dbm7"z/_G,/z/E/ z/_D/z/_G/ | "Gb7"E>_D E/D/z | "Cm7"z/F,/z/D/ z/C/z/F/ | "F7"Dz zF, ||
P:A
"Bbmaj7"D2- D>F | "Cm7"E2-E>G | "Dm7"F2-F>A | "Ebmaj7"G2-G/EG/ |
"Dm7"F2-F/DF/ | "Cm7"E2-E/CE/ | "Bb6"D2-D>B, | "Bb7"_A,z zB, ||
P:B
"Ebmaj7"G4 | "Em7b5"A>G "A7"z/A/ z/G/ | "Dm7"F2-F/D/F/G/ | "Gm7"z2 z>D |
"C7"z/B,/z/G,/ B, (3G,/B,/D/ | "F7"ED B,/F,/A, | "Bb6"B,z3 | "T.A."z4 |]
